X:1961
L:1/8
M:3/4
K:D
 fd F2 F2 | G2 FE F2 | c4 df | e2 ecdB | d4 df | e2 ecdB | cdecdB | c6 :: F3 cdB | c2 e2 d2 | 
 d3 efd | e2 g2 f2 | d3 efd | e2 g2 f2 |{e} d2 GFGE | F6 :|

